icons/drive-fill.svg

<svg width="24" height="24" fill="none" xmlns="http://www.w3.org/2000/svg"><g clip-path="url(#a)"><path d="m7.94 4.146 3.482 6.03-5.94 10.293L2 14.44 7.94 4.146Zm2.176 10.294H22l-3.482 6.029H6.635l3.481-6.029Zm4.343-1L8.518 3.145h6.964l5.94 10.295h-6.963Z" /></g><defs><clipPath id="a"><path fill="#fff" d="M0 0h24v24H0z"/></clipPath></defs></svg>

<svg xmlns="http://www.w3.org/2000/svg" width="24" height="24" fill="none"><g clip-path="url(#a)"><g><path fill="#121212" d="M7.94 4.14602L11.422 10.176L5.482 20.469L2 14.44L7.94 4.14602ZM10.116 14.44H22L18.518 20.469H6.635L10.116 14.44ZM14.459 13.44L8.518 3.14502H15.482L21.422 13.44H14.46H14.459Z"/></g></g><defs><clipPath id="a"><rect width="24" height="24" fill="white"/></clipPath></defs></svg>
